X:530
T:French King's Mistake. (p)1709.PLFD.530
M:6/4
L:1/4
Q:3/4=100
S:Playford, Dancing Master,14th.Ed.,1709.
O:English
Z:Chris Partington.
K:D
d2Ad>ef|e2ea2a|a>ba^g3|a3-a2e|
f2ff>ga|d2dd>ef|e2ea>ga|f3d3:|
a2aa>gf|e3-e2f|g2gg>fe|d3-d2e|
f2ff>ed|c>def>ed|c>def>ed|d3B3|
f2ff2g|a3-a2a|ab/a/gga/g/f|fg/f/eef/e/d|
e>fgee2|d2af>ga|d2AFDA|d6|]
